X: 30936
T: Over The Wall
R: jig
M: 6/8
K: Gmajor
AG|:~E3 EFA|baf gfe|D3 DFA|BAF AFD|
EBE EFA|baf g2b|~a3 Bde|fee eAF:|
gbe ege|fdc dcd|add fed|fbf afd|
bge efg|~f3 dcd|BAF AFA|BGE E2f|
~g3 ege|fdc d2B|ADD efg|fbf afa|
bge efg|fdB (4ABcd|~B3 FGA|BGE E2 z|
EDB, DFA|BAF DED|EFD EDB|DB,A, A,2 B,|
EDB, DFA|BAF def|afd Bde|fee egf|
EDB, DFA|BAF DED|EFD EDB,|DB,A, A,2 B,|
edB Dd^c|BAF def|a2f gfe|fed eag|
|:e2f gfe|ebe gfe|fdd baf|afd def|
e3 efe|bef gfe|dBA DFA|BGE E2 f:|

